dist/assets/icons/icon-pdf.svg

<svg width="17" height="20" viewBox="0 0 17 20" fill="none" xmlns="http://www.w3.org/2000/svg">
<g clip-path="url(#clip0_728_2030)">
<path d="M2.78057 -0.00702638C1.66734 -0.00702638 0.74707 0.913591 0.74707 2.06059V17.9224C0.74707 19.0543 1.6525 19.99 2.78057 19.99H14.7144C15.8276 19.99 16.7479 19.0694 16.7479 17.9224V4.86771C16.7479 4.86771 16.7776 4.49041 16.6143 4.11311C16.4659 3.76599 16.2135 3.52452 16.2135 3.52452L13.2598 0.566472C13.2598 0.566472 13.0074 0.324999 12.6364 0.158986C12.1911 -0.0372108 11.7458 -0.00702638 11.7458 -0.00702638H2.78057Z" fill="#FF2116"/>
<path d="M2.7806 0.672318H11.731C11.731 0.672318 12.0872 0.672318 12.3544 0.793055C12.6067 0.898699 12.7848 1.06471 12.7848 1.06471L15.7386 4.00767C15.7386 4.00767 15.9167 4.20386 16.0058 4.40006C16.08 4.56607 16.08 4.85282 16.08 4.85282V4.86791V17.9377C16.08 18.7073 15.4714 19.3261 14.7144 19.3261H2.7806C2.0236 19.3261 1.41504 18.7073 1.41504 17.9377V2.06079C1.41504 1.29109 2.0236 0.672318 2.7806 0.672318Z" fill="#F5F5F5"/>
<path d="M4.73969 11.9154C4.27955 11.4475 4.78422 10.8137 6.12009 10.1194L6.96615 9.69684L7.29269 8.95733C7.47081 8.54984 7.75283 7.88579 7.90126 7.4934L8.16843 6.76898L7.97547 6.22566C7.73798 5.56161 7.66377 4.56554 7.8122 4.20333C8.00516 3.72038 8.65825 3.76566 8.91058 4.29388C9.11839 4.70136 9.0887 5.44088 8.85121 6.37659L8.65825 7.14628L8.83637 7.44812C8.92543 7.61414 9.20745 8.00653 9.44494 8.30837L9.90507 8.88187L10.4691 8.80641C12.28 8.56494 12.8885 8.97242 12.8885 9.56101C12.8885 10.3005 11.4636 10.3609 10.2761 9.51574C10.009 9.31954 9.83085 9.13843 9.83085 9.13843C9.83085 9.13843 9.0887 9.28936 8.71763 9.395C8.33171 9.50064 8.15359 9.56101 7.58955 9.75721C7.58955 9.75721 7.39659 10.044 7.26301 10.2552C6.78803 11.04 6.23884 11.6739 5.83807 11.9154C5.43731 12.1267 4.97718 12.1418 4.73969 11.9154ZM5.467 11.6437C5.71933 11.4777 6.25368 10.8589 6.60991 10.2703L6.75834 10.0289L6.0904 10.376C5.06623 10.9042 4.59126 11.4022 4.82874 11.7041C4.96233 11.8701 5.14045 11.855 5.467 11.6437ZM12.1612 9.74212C12.4135 9.56101 12.3839 9.1988 12.087 9.04788C11.8644 8.92715 11.6862 8.91205 11.1074 8.91205C10.7511 8.94224 10.1871 9.00261 10.0832 9.03279C10.0832 9.03279 10.3949 9.25917 10.5285 9.33463C10.7066 9.44028 11.1667 9.63647 11.4933 9.74212C11.8198 9.84776 12.0128 9.84776 12.1612 9.74212ZM9.45978 8.59512C9.31135 8.42911 9.04417 8.09708 8.8809 7.84052C8.65825 7.55377 8.55435 7.35757 8.55435 7.35757C8.55435 7.35757 8.39108 7.8707 8.27233 8.18763L7.87157 9.1988L7.75283 9.42518C7.75283 9.42518 8.37624 9.2139 8.68794 9.13843C9.02933 9.04788 9.69727 8.91205 9.69727 8.91205L9.45978 8.59512ZM8.59888 5.06358C8.64341 4.73155 8.65825 4.39952 8.55435 4.23351C8.25749 3.91658 7.9161 4.17314 7.97547 4.94284C7.99032 5.1994 8.06453 5.65217 8.13875 5.92382L8.28718 6.42186L8.39108 6.04456C8.45045 5.84836 8.53951 5.3956 8.59888 5.06358Z" fill="#FF2116"/>
<path d="M5.52637 14.074H6.26852C6.50601 14.074 6.69897 14.1042 6.8474 14.1495C6.99583 14.1947 7.11457 14.3004 7.21848 14.4513C7.32238 14.6022 7.36691 14.7984 7.36691 15.0097C7.36691 15.2059 7.32238 15.387 7.24816 15.5228C7.1591 15.6738 7.0552 15.7794 6.92161 15.8398C6.78803 15.9001 6.56538 15.9303 6.28336 15.9303H6.03103V17.1226H5.52637V14.074ZM6.03103 14.4664V15.5379H6.28336C6.50601 15.5379 6.65444 15.4927 6.7435 15.4172C6.83256 15.3266 6.87709 15.1908 6.87709 15.0097C6.87709 14.8739 6.8474 14.7531 6.78803 14.6626C6.72865 14.572 6.66928 14.5268 6.60991 14.4966C6.55054 14.4815 6.43179 14.4664 6.29821 14.4664H6.03103Z" fill="#2C2C2C"/>
<path d="M7.76758 14.074H8.45036C8.77691 14.074 9.04408 14.1344 9.23704 14.2551C9.43 14.3758 9.57843 14.5419 9.68233 14.7833C9.78623 15.0097 9.83076 15.2814 9.83076 15.553C9.83076 15.8549 9.78623 16.1265 9.69718 16.3529C9.60812 16.5793 9.47453 16.7755 9.28157 16.9113C9.10345 17.0622 8.83628 17.1226 8.48004 17.1226H7.76758V14.074ZM8.2574 14.4815V16.7302H8.4652C8.76206 16.7302 8.96987 16.6246 9.10345 16.4284C9.23704 16.2171 9.29641 15.9454 9.29641 15.6134C9.29641 14.8588 9.01439 14.4815 8.4652 14.4815H8.2574Z" fill="#2C2C2C"/>
<path d="M10.3057 14.074H11.9829V14.4815H10.8103V15.4021H11.7454V15.8096H10.8103V17.1377H10.3057V14.074Z" fill="#2C2C2C"/>
</g>
<defs>
<clipPath id="clip0_728_2030">
<rect x="0.750488" width="16" height="20" rx="0.838203" fill="white"/>
</clipPath>
</defs>
</svg>

<svg width="17" height="20" fill="none" xmlns="http://www.w3.org/2000/svg"><g clip-path="url(#clip0_728_2030)"><path d="M2.78-.007C1.668-.007.748.913.748 2.061v15.861c0 1.132.906 2.068 2.034 2.068h11.933c1.114 0 2.034-.92 2.034-2.068V4.868s.03-.378-.134-.755c-.148-.347-.4-.588-.4-.588L13.26.566s-.253-.241-.624-.407c-.445-.196-.89-.166-.89-.166H2.78z" fill="#FF2116"/><path d="M2.78.672h8.951s.356 0 .623.121c.253.106.43.272.43.272l2.955 2.943s.178.196.267.392c.074.166.074.453.074.453v13.085c0 .77-.609 1.388-1.366 1.388H2.781a1.374 1.374 0 01-1.366-1.388V2.06c0-.77.609-1.389 1.366-1.389z" fill="#F5F5F5"/><path d="M4.74 11.915c-.46-.467.044-1.101 1.38-1.796l.846-.422.327-.74c.178-.407.46-1.071.608-1.464l.267-.724-.193-.543c-.237-.664-.311-1.66-.163-2.023.193-.483.846-.437 1.099.09.207.408.178 1.148-.06 2.084l-.193.77.178.301c.09.166.371.559.609.86l.46.574.564-.076c1.811-.241 2.42.166 2.42.755 0 .74-1.425.8-2.613-.045-.267-.196-.445-.378-.445-.378s-.742.151-1.113.257c-.386.106-.564.166-1.128.362 0 0-.193.287-.327.498-.475.785-1.024 1.419-1.425 1.66-.4.212-.86.227-1.098 0zm.727-.271c.252-.166.787-.785 1.143-1.374l.148-.241-.668.347c-1.024.528-1.499 1.026-1.261 1.328.133.166.311.151.638-.06zm6.694-1.902c.253-.181.223-.543-.074-.694-.223-.12-.4-.136-.98-.136-.356.03-.92.09-1.024.12 0 0 .312.227.445.303.179.105.639.301.965.407.327.106.52.106.668 0zM9.46 8.595a6.937 6.937 0 01-.58-.754 3.73 3.73 0 01-.326-.483s-.163.513-.282.83l-.4 1.01-.12.227s.624-.211.936-.287c.341-.09 1.01-.226 1.01-.226l-.238-.317zm-.861-3.531c.044-.332.06-.664-.045-.83-.297-.317-.638-.06-.579.709.015.256.09.71.164.98l.148.499.104-.377c.06-.197.149-.65.208-.981z" fill="#FF2116"/><path d="M5.526 14.074h.743c.237 0 .43.03.578.075.149.046.268.151.371.302a.98.98 0 01.149.559c0 .196-.045.377-.119.513a.735.735 0 01-.326.317c-.134.06-.357.09-.639.09h-.252v1.193h-.505v-3.049zm.505.392v1.072h.252c.223 0 .371-.045.46-.12.09-.091.134-.227.134-.408a.633.633 0 00-.089-.347.449.449 0 00-.178-.166 1.434 1.434 0 00-.312-.03h-.267zm1.737-.392h.682c.327 0 .594.06.787.181.193.12.341.287.445.528.104.227.149.498.149.77 0 .302-.045.573-.134.8a1.2 1.2 0 01-.415.558c-.179.151-.446.212-.802.212h-.712v-3.049zm.49.408v2.248h.207c.297 0 .505-.105.638-.302.134-.21.193-.483.193-.815 0-.754-.282-1.131-.83-1.131h-.209zm2.048-.408h1.677v.408H10.81v.92h.935v.408h-.935v1.328h-.504v-3.064z" fill="#2C2C2C"/></g><defs><clipPath id="clip0_728_2030"><rect x=".75" width="16" height="20" rx=".838" fill="#fff"/></clipPath></defs></svg>
